22x22/apps/distributor-logo-ubuntu-studio.svg

<svg xmlns="http://www.w3.org/2000/svg" width="24" height="24"><g transform="translate(-1 -1)"><circle style="opacity:.2" cx="12" cy="12.5" r="10"/><circle style="fill:#0094f0" cx="12" cy="12" r="10"/><path style="opacity:.2;fill:#f4f4f7" d="M12 2A10 10 0 0 0 2 12a10 10 0 0 0 .01.293A10 10 0 0 1 12 2.5a10 10 0 0 1 9.99 9.707A10 10 0 0 0 22 12 10 10 0 0 0 12 2z"/><g style="fill:none;stroke:#000;stroke-width:3;stroke-linecap:round;opacity:.2" transform="matrix(.5 0 0 .5 0 .5)"><circle cx="24" cy="24" r="4.5"/><path d="M16.929 16.929a10 10 0 0 1 10.898-2.168A10 10 0 0 1 34 24a10 10 0 0 1-6.173 9.239 10 10 0 0 1-10.898-2.168M14.311 26.475a10 10 0 0 1 0-4.95M9.161 28.48a15.5 15.5 0 0 1 0-8.96M27.52 8.905a15.5 15.5 0 0 1 7.963 4.684M35.494 34.399a15.5 15.5 0 0 1-7.968 4.695"/></g><g style="fill:none;stroke:#f4f4f7;stroke-width:3;stroke-linecap:round" transform="scale(.5)"><circle cx="24" cy="24" r="4.5"/><path d="M16.929 16.929a10 10 0 0 1 10.898-2.168A10 10 0 0 1 34 24a10 10 0 0 1-6.173 9.239 10 10 0 0 1-10.898-2.168M14.311 26.475a10 10 0 0 1 0-4.95M9.161 28.48a15.5 15.5 0 0 1 0-8.96M27.52 8.905a15.5 15.5 0 0 1 7.963 4.684M35.494 34.399a15.5 15.5 0 0 1-7.968 4.695"/></g></g></svg>

<svg xmlns="http://www.w3.org/2000/svg" width="24" height="24" version="1.1">
 <g transform="translate(-1,-1)">
  <circle style="opacity:0.2" cx="12" cy="12.5" r="10"/>
  <circle style="fill:#0094f0" cx="12" cy="12" r="10"/>
  <path style="opacity:0.2;fill:#f4f4f7" d="M 12 2 A 10 10 0 0 0 2 12 A 10 10 0 0 0 2.0098 12.293 A 10 10 0 0 1 12 2.5 A 10 10 0 0 1 21.99 12.207 A 10 10 0 0 0 22 12 A 10 10 0 0 0 12 2 z"/>
  <g style="fill:none;stroke:#000000;stroke-width:3;stroke-linecap:round;opacity:0.2" transform="matrix(0.5,0,0,0.5,0,0.5)">
   <circle cx="24" cy="24" r="4.5"/>
   <path d="M 16.929,16.929 A 10,10 0 0 1 27.827,14.761 10,10 0 0 1 34,24 10,10 0 0 1 27.827,33.239 10,10 0 0 1 16.929,31.071"/>
   <path d="M 14.311,26.475 A 10,10 0 0 1 14.311,21.525"/>
   <path d="M 9.1614,28.48 A 15.5,15.5 0 0 1 9.1615,19.52"/>
   <path d="M 27.52,8.905 A 15.5,15.5 0 0 1 35.483,13.589"/>
   <path d="M 35.494,34.399 A 15.5,15.5 0 0 1 27.526,39.094"/>
  </g>
  <g style="fill:none;stroke:#f4f4f7;stroke-width:3;stroke-linecap:round" transform="scale(0.5)">
   <circle cx="24" cy="24" r="4.5"/>
   <path d="M 16.929,16.929 A 10,10 0 0 1 27.827,14.761 10,10 0 0 1 34,24 10,10 0 0 1 27.827,33.239 10,10 0 0 1 16.929,31.071"/>
   <path d="M 14.311,26.475 A 10,10 0 0 1 14.311,21.525"/>
   <path d="M 9.1614,28.48 A 15.5,15.5 0 0 1 9.1615,19.52"/>
   <path d="M 27.52,8.905 A 15.5,15.5 0 0 1 35.483,13.589"/>
   <path d="M 35.494,34.399 A 15.5,15.5 0 0 1 27.526,39.094"/>
  </g>
 </g>
</svg>
